X:359
T:Tom Ward's Downfall
Z: id:dc-reel-335
M:C
L:1/8
K:G Major
A|BGG2 GEDG|EDEG AEGE|DEGA BABd|edd2 Bdgd|!
BGG2 GEDG|EDEG AEGE|DEGA BABd|eBdc BGG:|!
B|dgg2 gedg|eaa2 abga|bgg2 agef|gedc BGGB|!
dgg2 gedg|eaa2 abga|bgg2 agef|gedc BGG:|!

